src/symbolic/actions/category-search-symbolic.svg

<svg xmlns="http://www.w3.org/2000/svg" width="16" height="16" version="1.1" viewBox="0 0 16 16">
 <path style="fill:#444444" d="M 8 3 A 4 4 0 0 0 4 7 A 4 4 0 0 0 8 11 A 4 4 0 0 0 10.332031 10.244141 L 13.359375 12.767578 A 1.0001 1.0001 0 1 0 14.640625 11.232422 L 11.611328 8.7089844 A 4 4 0 0 0 12 7 A 4 4 0 0 0 8 3 z M 1 3.0039062 L 1 5.0039062 L 3 5.0039062 L 3 3.0039062 L 1 3.0039062 z M 8 5 A 2 2 0 0 1 10 7 A 2 2 0 0 1 9.96875 7.3398438 A 2 2 0 0 1 8.6894531 8.875 A 2 2 0 0 1 8.4980469 8.9355469 A 2 2 0 0 1 8.3183594 8.9726562 A 2 2 0 0 1 8.2265625 8.984375 A 2 2 0 0 1 8.1113281 8.9960938 A 2 2 0 0 1 8.1035156 8.9960938 A 2 2 0 0 1 8 9 A 2 2 0 0 1 6 7 A 2 2 0 0 1 6.0097656 6.8007812 A 2 2 0 0 1 8 5 z M 1 7.0039062 L 1 9.0039062 L 3 9.0039062 L 3 7.0039062 L 1 7.0039062 z M 1 11.003906 L 1 13.003906 L 3 13.003906 L 3 11.003906 L 1 11.003906 z"/>
</svg>

<svg xmlns="http://www.w3.org/2000/svg" width="16" height="16"><path d="M8 3a4 4 0 0 0-4 4 4 4 0 0 0 4 4 4 4 0 0 0 2.332-.756l3.027 2.524a1 1 0 1 0 1.282-1.536L11.61 8.71A4 4 0 0 0 12 7a4 4 0 0 0-4-4zm-7 .004v2h2v-2H1zM8 5a2 2 0 0 1 2 2 2 2 0 0 1-.031.34 2 2 0 0 1-1.28 1.535 2 2 0 0 1-.191.06 2 2 0 0 1-.18.038 2 2 0 0 1-.091.011 2 2 0 0 1-.116.012 2 2 0 0 1-.007 0A2 2 0 0 1 8 9a2 2 0 0 1-2-2 2 2 0 0 1 .01-.2A2 2 0 0 1 8 5zM1 7.004v2h2v-2H1zm0 4v2h2v-2H1z" fill="#5d656b"/></svg>
